icons/pause.svg

<svg xmlns="http://www.w3.org/2000/svg" width="96" height="96"><path d="M28 16h8c2.1 0 4.2.8 5.7 2.3 1.5 1.5 2.3 3.6 2.3 5.7v48c0 2.1-.8 4.2-2.3 5.7-1.5 1.5-3.6 2.3-5.7 2.3h-8c-2.1 0-4.2-.8-5.7-2.3-1.5-1.5-2.3-3.6-2.3-5.7V24c0-2.1.8-4.2 2.3-5.7 1.5-1.5 3.6-2.3 5.7-2.3zm0 8h8v48h-8V24zm32-8h8c2.1 0 4.2.8 5.7 2.3 1.5 1.5 2.3 3.6 2.3 5.7v48c0 2.1-.8 4.2-2.3 5.7-1.5 1.5-3.6 2.3-5.7 2.3h-8c-2.1 0-4.2-.8-5.7-2.3-1.5-1.5-2.3-3.6-2.3-5.7V24c0-2.1.8-4.2 2.3-5.7 1.5-1.5 3.6-2.3 5.7-2.3zm0 8h8v48h-8V24z" fill-rule="evenodd" fill="#454545"/></svg>

<?xml version="1.0" standalone="no"?><!-- Generator: Gravit.io --><svg xmlns="http://www.w3.org/2000/svg" xmlns:xlink="http://www.w3.org/1999/xlink" width="96" height="96"><path d=" M 28 16 L 36 16 C 38.1 16 40.2 16.8 41.7 18.3 C 43.2 19.8 44 21.9 44 24 L 44 72 C 44 74.1 43.2 76.2 41.7 77.7 C 40.2 79.2 38.1 80 36 80 L 28 80 C 25.9 80 23.8 79.2 22.3 77.7 C 20.8 76.2 20 74.1 20 72 L 20 24 C 20 21.9 20.8 19.8 22.3 18.3 C 23.8 16.8 25.9 16 28 16 Z  M 28 24 L 36 24 L 36 72 L 28 72 L 28 24 Z  M 60 16 L 68 16 C 70.1 16 72.2 16.8 73.7 18.3 C 75.2 19.8 76 21.9 76 24 L 76 72 C 76 74.1 75.2 76.2 73.7 77.7 C 72.2 79.2 70.1 80 68 80 L 60 80 C 57.9 80 55.8 79.2 54.3 77.7 C 52.8 76.2 52 74.1 52 72 L 52 24 C 52 21.9 52.8 19.8 54.3 18.3 C 55.8 16.8 57.9 16 60 16 Z  M 60 24 L 68 24 L 68 72 L 60 72 L 60 24 Z " fill-rule="evenodd" fill="#454545" stroke="none"/><mask id="_mask_H0Rt2R3eMugMiWzb4fQR1OodNWuUSqe8"><path d=" M 28 16 L 36 16 C 38.1 16 40.2 16.8 41.7 18.3 C 43.2 19.8 44 21.9 44 24 L 44 72 C 44 74.1 43.2 76.2 41.7 77.7 C 40.2 79.2 38.1 80 36 80 L 28 80 C 25.9 80 23.8 79.2 22.3 77.7 C 20.8 76.2 20 74.1 20 72 L 20 24 C 20 21.9 20.8 19.8 22.3 18.3 C 23.8 16.8 25.9 16 28 16 Z  M 28 24 L 36 24 L 36 72 L 28 72 L 28 24 Z  M 60 16 L 68 16 C 70.1 16 72.2 16.8 73.7 18.3 C 75.2 19.8 76 21.9 76 24 L 76 72 C 76 74.1 75.2 76.2 73.7 77.7 C 72.2 79.2 70.1 80 68 80 L 60 80 C 57.9 80 55.8 79.2 54.3 77.7 C 52.8 76.2 52 74.1 52 72 L 52 24 C 52 21.9 52.8 19.8 54.3 18.3 C 55.8 16.8 57.9 16 60 16 Z  M 60 24 L 68 24 L 68 72 L 60 72 L 60 24 Z " fill-rule="evenodd" fill="white" stroke="none"/></mask><path d=" M 28 16 L 36 16 C 38.1 16 40.2 16.8 41.7 18.3 C 43.2 19.8 44 21.9 44 24 L 44 72 C 44 74.1 43.2 76.2 41.7 77.7 C 40.2 79.2 38.1 80 36 80 L 28 80 C 25.9 80 23.8 79.2 22.3 77.7 C 20.8 76.2 20 74.1 20 72 L 20 24 C 20 21.9 20.8 19.8 22.3 18.3 C 23.8 16.8 25.9 16 28 16 Z  M 28 24 L 36 24 L 36 72 L 28 72 L 28 24 Z  M 60 16 L 68 16 C 70.1 16 72.2 16.8 73.7 18.3 C 75.2 19.8 76 21.9 76 24 L 76 72 C 76 74.1 75.2 76.2 73.7 77.7 C 72.2 79.2 70.1 80 68 80 L 60 80 C 57.9 80 55.8 79.2 54.3 77.7 C 52.8 76.2 52 74.1 52 72 L 52 24 C 52 21.9 52.8 19.8 54.3 18.3 C 55.8 16.8 57.9 16 60 16 Z  M 60 24 L 68 24 L 68 72 L 60 72 L 60 24 Z " fill-rule="evenodd" fill="none" stroke="none" stroke-width="16" mask="url(#_mask_H0Rt2R3eMugMiWzb4fQR1OodNWuUSqe8)"/></svg>
